X:1
T:James Gibb editions
T:Alleluia! Alleluia! hearts and voices  - Barnby
%%score [ ( 1 2 ) ( 3 4 ) ]
L:1/8
Q:1/4=84
M:4/4
K:F
V:1 treble nm="Midi_74"
V:2 treble 
V:3 bass nm="Midi_74"
V:4 bass 
V:1
"^Christopher Wordsworth\n(1807-85)""^87. 87. D""^Alleluia! Alleluia! hearts and voices""^Joseph Barnby\n(1838-96)" c2 c2 d2 c2 | %1
 A2 F2"^1" A2 G2 | F2 F2 G2 A2 | c2 B2 G4 || G2 c2 d2 c2 | G2 c2 d2 c2 | G2"^1" e2 d2 c2 | %7
 A2 =B2 c4 ||[M:4/4] G2 G2 F2 B2 | A2 G2 G2 A2 | c2 c2 B2 _e2 | d2 c2 d4 || d2 e2 f2 c2 | %13
 B2 A2"^1" A2 G2 | G2 d2 c2 F2 | A3 G F4 || B4 A4 |] %17
V:2
 F2 F2 F2 E2 | C2 F2 E2 E2 | F2 C2 F2 F2 | F2 F2 !courtesy!=E4 || E2 G2 G2 G2 | E2 G2 G2 G2 | %6
 G2 G2 G2 G2 | G2 F2 E4 ||[M:4/4] E2 E2 F2 F2 | F2 E2 E2 F2 | F2 F2 F2 _E2 | F2 F2 F4 || %12
 F2 G2 F2 F2 | F2 F2 F2 F2 | E2 E2 F2 F2 | F2 E2 F4 || F4 F4 |] %17
V:3
 A,2 A,2 B,2 G,2 | F,2 C2 C2 B,2 | A,2 A,2 B,2 C2 | _E2 D2 G,4 || C2 C2 =B,2 C2 | C2 C2 =B,2 C2 | %6
 G,2 C2 =B,2 CE | E2 D2 C4 || %8
[M:4/4]"^1 Alleluia! Alleluia!\nHearts and voices heavenward raise:\nSing to God a hymn of gladness,\nSing to God a hymn of praise:\nHe, Who on the cross a victim,\nFor the world's salvation bled,\nJesus Christ, the King of glory,\nNow is risen from the dead.\n\n2 Now the iron bars are broken,\nChrist from death to life is born,\nGlorious life, and life immortal,\nOn this holy Easter morn:\nChrist has triumphed, and we conquer\nBy His mighty enterprise,\nWe with Him to life eternal\nBy His resurrection rise.\n\n3 Christ is risen, Christ the first-fruits\nOf the holy harvest-field,\nWhich will all its full abundance\nAt His second coming yield:\nThen the golden ears of harvest\nWill their heads before Him wave,\nRipened by His glorious sunshine\nFrom the furrows of the grave." C2 B,2 A,2 D2 | %9
 C2 C2 B,2 A,2 | A,2 A,2 B,2 B,2 | B,2 A,2 B,4 || %12
 B,2 B,2"^4 Christ is risen, we are risen!\nShed upon us heavenly grace,\nRain and dew and gleams of glory\nFrom the brightness of Thy face:\nThat, with hearts in heaven dwelling,\nWe on earth may fruitful be,\nAnd by angel-hands be gathered,\nAnd be ever, Lord, with Thee.\n\n5 Alleluia! Alleluia!\nGlory be to God on high;\nAlleluia to the Saviour\nWho has won the victory;\nAlleluia to the Spirit,\nFount of love and sanctity;\nAlleluia! Alleluia!\nTo the Triune Majesty." C2 A,2 | %13
 B,2 C2 D2 D2 | C2 C2 C2 B,2 | C2 B,2 A,4 || D4 C4 |] %17
V:4
 F,2 F,2 B,,2 C,2 | F,2 A,2 C2 C,2 | D,2 _E,2 D,2 C,2 | A,,2 B,,2 C,4 || C,2 E,2 F,2 E,2 | %5
 C,2 E,2 F,2 E,2 | G,2 C,2 D,2 E,2 | F,2 G,2 C,4 ||[M:4/4] C,2 C,2 D,2 B,,2 | C,2 C,2 F,2 F,2 | %10
 F,2 E,2 D,2 G,2 | F,2 F,2 B,4 || B,2 G,2 A,2 F,2 | D,2 C,2 B,,2 B,,2 | B,2 B,2 A,2 D,2 | %15
 C,2 C,2 F,4 || B,,4 F,4 |] %17

